icons/variable.svg

<svg width="14" height="14" viewBox="0 0 14 14" fill="none"
    xmlns="http://www.w3.org/2000/svg">
    <path d="M5 11V11C3.77427 10.3871 3 9.13434 3 7.76393V6.23607C3 4.86566 3.77427 3.61287 5 3V3" stroke="green" stroke-linecap="round" stroke-linejoin="round"/>
    <path d="M9 11V11C10.2257 10.3871 11 9.13434 11 7.76393V6.23607C11 4.86566 10.2257 3.61287 9 3V3" stroke="green" stroke-linecap="round" stroke-linejoin="round"/>
    <path d="M5.62048 5.01416L5.80798 5.06983C6.39399 5.27033 6.79144 5.67887 6.99939 6.16065C7.22869 5.62897 7.68865 5.18664 8.37829 5.01416C8.64594 4.94739 8.91756 5.11092 8.98474 5.37842C9.05156 5.64625 8.8883 5.91791 8.62048 5.98487C7.56456 6.24926 7.56471 7.7496 8.62048 8.01416C8.88818 8.08109 9.05132 8.35291 8.98474 8.62061C8.9261 8.85516 8.71041 9.00975 8.4779 8.99952L8.37829 8.98487L8.19079 8.9292C7.60457 8.7285 7.20714 8.3205 6.99939 7.83838C6.77015 8.37037 6.31054 8.81239 5.62048 8.98487C5.35271 9.05156 5.08096 8.88837 5.01404 8.62061C4.94757 8.35302 5.11076 8.08115 5.37829 8.01416C6.40158 7.75822 6.43359 6.34167 5.474 6.01319L5.37829 5.98487L5.28259 5.95069C5.07324 5.85009 4.95561 5.61257 5.01404 5.37842C5.07278 5.1442 5.28862 4.98946 5.52087 4.99952L5.62048 5.01416Z" fill="red"/>
</svg>

<svg xmlns="http://www.w3.org/2000/svg" width="14" height="14" fill="none" viewBox="0 0 14 14"><path stroke="green" stroke-linecap="round" stroke-linejoin="round" d="M5 11a3.62 3.62 0 0 1-2-3.236V6.236C3 4.866 3.774 3.613 5 3v0m4 8a3.62 3.62 0 0 0 2-3.236V6.236c0-1.37-.774-2.623-2-3.236v0"/><path fill="red" d="m5.62 5.014.188.056c.586.2.983.609 1.191 1.09.23-.531.69-.973 1.38-1.146a.501.501 0 0 1 .241.97c-1.055.265-1.055 1.766 0 2.03A.5.5 0 0 1 8.478 9l-.1-.015-.187-.056a1.96 1.96 0 0 1-1.192-1.09c-.229.531-.688.973-1.379 1.146a.5.5 0 0 1-.242-.97c1.024-.257 1.056-1.673.096-2.002l-.096-.028-.095-.034A.501.501 0 0 1 5.52 5z"/></svg>
